img/main/bg-404.svg

<svg width="1370" height="622" fill="none" xmlns="http://www.w3.org/2000/svg"><path d="M300.895 464.661h113.18V400.02h50.082v-91.739h-50.082V57.339H248.266L100 303.765v96.255h200.895v64.641zM198.184 313.08v-3.388l103.843-172.469h2.263V313.08H198.184zM683.161 472c113.18 0 182.503-81.013 182.503-210.859v-.564C865.664 130.73 796.341 50 683.161 50c-113.18 0-183.069 80.73-183.069 210.577v.564C500.092 390.987 569.981 472 683.161 472zm0-92.021c-39.613 0-61.4-42.059-61.4-118.838v-.564c0-76.779 21.787-118.556 61.4-118.556s61.117 41.777 61.117 118.556v.564c0 76.779-21.504 118.838-61.117 118.838zm423.579 84.682h113.18V400.02H1270v-91.739h-50.08V57.339h-165.81L905.843 303.765v96.255h200.897v64.641zM1004.03 313.08v-3.388l103.84-172.469h2.26V313.08h-106.1z" filter="url(#filter0_di)" fill="#fff" fill-opacity=".6"/><defs><filter id="filter0_di" x="0" y="0" width="1370" height="622" filterUnits="userSpaceOnUse" color-interpolation-filters="sRGB"><feFlood flood-opacity="0" result="BackgroundImageFix"/><feColorMatrix in="SourceAlpha" values="0 0 0 0 0 0 0 0 0 0 0 0 0 0 0 0 0 0 127 0"/><feOffset dy="50"/><feGaussianBlur stdDeviation="50"/><feColorMatrix values="0 0 0 0 0 0 0 0 0 0 0 0 0 0 0 0 0 0 0.1 0"/><feBlend in2="BackgroundImageFix" result="effect1_dropShadow"/><feBlend in="SourceGraphic" in2="effect1_dropShadow" result="shape"/><feColorMatrix in="SourceAlpha" values="0 0 0 0 0 0 0 0 0 0 0 0 0 0 0 0 0 0 127 0" result="hardAlpha"/><feOffset dy="-10"/><feComposite in2="hardAlpha" operator="arithmetic" k2="-1" k3="1"/><feColorMatrix values="0 0 0 0 0 0 0 0 0 0 0 0 0 0 0 0 0 0 0.02 0"/><feBlend in2="shape" result="effect2_innerShadow"/></filter></defs></svg>

<svg width="1370" height="622" viewBox="0 0 1370 622" fill="none" xmlns="http://www.w3.org/2000/svg">
<g filter="url(#filter0_di)">
<path d="M300.895 464.661H414.075V400.02H464.157V308.281H414.075V57.3391H248.266L100 303.765V400.02H300.895V464.661ZM198.184 313.08V309.692L302.027 137.223H304.29V313.08H198.184Z" fill="white" fill-opacity="0.6"/>
<path d="M683.161 472C796.341 472 865.664 390.987 865.664 261.141V260.577C865.664 130.73 796.341 50 683.161 50C569.981 50 500.092 130.73 500.092 260.577V261.141C500.092 390.987 569.981 472 683.161 472ZM683.161 379.979C643.548 379.979 621.761 337.92 621.761 261.141V260.577C621.761 183.798 643.548 142.021 683.161 142.021C722.774 142.021 744.278 183.798 744.278 260.577V261.141C744.278 337.92 722.774 379.979 683.161 379.979Z" fill="white" fill-opacity="0.6"/>
<path d="M1106.74 464.661H1219.92V400.02H1270V308.281H1219.92V57.3391H1054.11L905.843 303.765V400.02H1106.74V464.661ZM1004.03 313.08V309.692L1107.87 137.223H1110.13V313.08H1004.03Z" fill="white" fill-opacity="0.6"/>
</g>
<defs>
<filter id="filter0_di" x="0" y="0" width="1370" height="622" filterUnits="userSpaceOnUse" color-interpolation-filters="sRGB">
<feFlood flood-opacity="0" result="BackgroundImageFix"/>
<feColorMatrix in="SourceAlpha" type="matrix" values="0 0 0 0 0 0 0 0 0 0 0 0 0 0 0 0 0 0 127 0"/>
<feOffset dy="50"/>
<feGaussianBlur stdDeviation="50"/>
<feColorMatrix type="matrix" values="0 0 0 0 0 0 0 0 0 0 0 0 0 0 0 0 0 0 0.1 0"/>
<feBlend mode="normal" in2="BackgroundImageFix" result="effect1_dropShadow"/>
<feBlend mode="normal" in="SourceGraphic" in2="effect1_dropShadow" result="shape"/>
<feColorMatrix in="SourceAlpha" type="matrix" values="0 0 0 0 0 0 0 0 0 0 0 0 0 0 0 0 0 0 127 0" result="hardAlpha"/>
<feOffset dy="-10"/>
<feComposite in2="hardAlpha" operator="arithmetic" k2="-1" k3="1"/>
<feColorMatrix type="matrix" values="0 0 0 0 0 0 0 0 0 0 0 0 0 0 0 0 0 0 0.02 0"/>
<feBlend mode="normal" in2="shape" result="effect2_innerShadow"/>
</filter>
</defs>
</svg>
